img/footer/linkedin-icon.svg

<svg width="20" height="20" viewBox="0 0 20 20" fill="none" xmlns="http://www.w3.org/2000/svg">
<path d="M6.20499 3.74977C6.20479 4.1476 6.04656 4.52905 5.76512 4.81021C5.48367 5.09138 5.10206 5.24922 4.70424 5.24902C4.30641 5.24882 3.92496 5.0906 3.6438 4.80915C3.36263 4.52771 3.20479 4.1461 3.20499 3.74827C3.20519 3.35045 3.36341 2.969 3.64486 2.68783C3.9263 2.40667 4.30791 2.24882 4.70574 2.24902C5.10356 2.24922 5.48501 2.40745 5.76618 2.68889C6.04734 2.97034 6.20519 3.35195 6.20499 3.74977ZM6.24999 6.35977H3.24999V15.7498H6.24999V6.35977ZM10.99 6.35977H8.00499V15.7498H10.96V10.8223C10.96 8.07727 14.5375 7.82227 14.5375 10.8223V15.7498H17.5V9.80227C17.5 5.17477 12.205 5.34727 10.96 7.61977L10.99 6.35977Z" fill="#75757F"/>
</svg>

<svg xmlns="http://www.w3.org/2000/svg" width="20" height="20" fill="none"><path fill="#75757F" d="M6.205 3.75a1.5 1.5 0 1 1-3-.002 1.5 1.5 0 0 1 3 .002Zm.045 2.61h-3v9.39h3V6.36Zm4.74 0H8.005v9.39h2.955v-4.928c0-2.745 3.577-3 3.577 0v4.928H17.5V9.802c0-4.627-5.295-4.455-6.54-2.182l.03-1.26Z"/></svg>
